X: 196
T: Let it be so
C: anon.
O: Ireland
B: Francis O'Neill: "The Dance Music of Ireland" (1907) no. 196
R: Double jig
Z: Transcribed by Frank Nordberg - http://www.musicaviva.com
F: http://www.musicaviva.com/abc/tunes/ireland/oneill-1001/oneill-1001-019
6.abc
m: Tn3 = no/4n/m/4n
M: 6/8
L: 1/8
K: D
B|(A/B/c)A- AFE|TF3 FED|(A/B/c)A- AFA|DFA dcB|(A/B/c)A- AFE|FGF FEF|DED F
E(F|D)FA d2:|
|:B|(A/B/c)d e2d|(e/f/e)(d c)BA|(A/B/c)d [c2e2](f|g)fe d2A|def gfe|ded dc
B|(A/B/c)A- AFA|(DF)A d2:|
W:
W:
W: From Musica Viva - http://www.musicaviva.com
W: the Internet center for free sheet music downloads.


